src/assets/img/logo.svg

<svg fill="none" height="62" viewBox="0 0 166 62" width="166" xmlns="http://www.w3.org/2000/svg" xmlns:xlink="http://www.w3.org/1999/xlink"><linearGradient id="a" gradientUnits="userSpaceOnUse" x1="121.915" x2="145.221" y1="16.2507" y2="30.2121"><stop offset="0"/><stop offset="1" stop-color="#1c69ff"/></linearGradient><linearGradient id="b" gradientUnits="userSpaceOnUse" x1="115.707" x2="131.454" y1="33.5173" y2="8.9142"><stop offset="0" stop-color="#d400f7"/><stop offset=".997707" stop-color="#115dd0"/></linearGradient><linearGradient id="c" gradientUnits="userSpaceOnUse" x1="120.125" x2="124.827" y1="28.9763" y2="44.9418"><stop offset="0"/><stop offset="1" stop-color="#e22fff"/></linearGradient><path d="m3.33399 20.8109h3.91934v17.7878h11.03447v3.3163h-14.95381zm31.46781 13.1449c0 .2612-.0201.6331-.0603 1.1155h-12.6323c.2211 1.1858.7939 2.1305 1.7184 2.8339.9447.6834 2.1105 1.0251 3.4973 1.0251 1.7687 0 3.2259-.5829 4.3716-1.7486l2.02 2.3214c-.7236.8643-1.6381 1.5175-2.7436 1.9597-1.1054.4422-2.3516.6633-3.7384.6633-1.7688 0-3.3265-.3518-4.6731-1.0552-1.3467-.7035-2.3918-1.6783-3.1355-2.9245-.7236-1.2662-1.0853-2.6933-1.0853-4.2811 0-1.5677.3517-2.9747 1.0552-4.2208.7235-1.2663 1.7185-2.2511 2.9847-2.9546 1.2663-.7035 2.6933-1.0552 4.2811-1.0552 1.5678 0 2.9647.3517 4.1907 1.0552 1.2462.6834 2.2109 1.6582 2.8943 2.9244.7035 1.2462 1.0552 2.6933 1.0552 4.3415zm-8.1402-5.3062c-1.2059 0-2.231.3617-3.0751 1.0853-.8241.7035-1.3266 1.6482-1.5075 2.834h9.1351c-.1608-1.1657-.6532-2.1104-1.4773-2.834s-1.8491-1.0853-3.0752-1.0853zm16.263-3.0149c2.3717 0 4.1806.5728 5.4267 1.7185 1.2663 1.1255 1.8994 2.834 1.8994 5.1253v9.4365h-3.5575v-1.9596c-.4623.7034-1.1256 1.2461-1.9899 1.628-.8441.3618-1.8692.5427-3.0751.5427-1.206 0-2.2612-.201-3.1657-.603-.9044-.4221-1.6079-.9949-2.1104-1.7185-.4824-.7436-.7236-1.5778-.7236-2.5023 0-1.4472.5327-2.6029 1.5979-3.4671 1.0854-.8844 2.7838-1.3266 5.0952-1.3266h4.1605v-.2412c0-1.1255-.3417-1.9898-1.025-2.5928-.6633-.603-1.6582-.9044-2.9848-.9044-.9044 0-1.7988.1407-2.6832.422-.8643.2814-1.5979.6734-2.2009 1.1758l-1.4773-2.7435c.8442-.6432 1.8592-1.1356 3.0451-1.4773 1.1858-.3417 2.442-.5125 3.7686-.5125zm-.5126 13.7478c.9447 0 1.7788-.211 2.5024-.6331.7437-.4422 1.2662-1.0652 1.5677-1.8692v-1.8692h-3.8892c-2.1707 0-3.256.7135-3.256 2.1405 0 .6834.2713 1.2261.814 1.6281.5427.4019 1.2964.6029 2.2611.6029zm27.3843-19.8379v22.3704h-3.6178v-2.0802c-.6231.7637-1.3969 1.3366-2.3215 1.7185-.9044.3818-1.9094.5728-3.0149.5728-1.5476 0-2.9445-.3417-4.1906-1.0251-1.2261-.6834-2.1909-1.6481-2.8943-2.8943-.7035-1.2662-1.0552-2.7134-1.0552-4.3414s.3517-3.0651 1.0552-4.3113c.7034-1.2461 1.6682-2.2109 2.8943-2.8943 1.2461-.6833 2.643-1.025 4.1906-1.025 1.0653 0 2.0401.1809 2.9245.5427.8843.3617 1.6381.9044 2.2611 1.628v-8.2608zm-8.5019 19.3556c.9044 0 1.7185-.201 2.442-.603.7236-.4221 1.2964-1.015 1.7185-1.7788s.6331-1.6481.6331-2.6531-.211-1.8893-.6331-2.6531-.9949-1.3466-1.7185-1.7486c-.7235-.4221-1.5376-.6331-2.442-.6331-.9045 0-1.7185.211-2.4421.6331-.7235.402-1.2964.9848-1.7185 1.7486-.422.7638-.6331 1.6481-.6331 2.6531s.2111 1.8893.6331 2.6531c.4221.7638.995 1.3567 1.7185 1.7788.7236.402 1.5376.603 2.4421.603zm21.6626 3.3163c-2.9144 0-5.1856-.814-6.8136-2.442-1.6281-1.6482-2.4421-3.9998-2.4421-7.0548v-11.9088h3.9194v11.758c0 4.1404 1.7888 6.2107 5.3665 6.2107 3.5575 0 5.3363-2.0703 5.3363-6.2107v-11.758h3.859v11.9088c0 3.055-.814 5.4066-2.442 7.0548-1.6079 1.628-3.8691 2.442-6.7835 2.442zm26.51-.3015-5.729-8.0195-5.6675 8.0195h-4.462l7.8385-10.7631-7.4164-10.341h4.4318l5.3966 7.507 5.336-7.507h4.251l-7.386 10.1903 7.929 10.9138z" fill="#fff"/><g stroke-linecap="round" stroke-width="4.52813"><path d="m145.222 29.7472-23.25-13.3978" stroke="url(#a)"/><path d="m122.068 43.3789 23.271-13.4355" stroke="url(#b)"/><path d="m122.068 43.3787.01-11.9698" stroke="url(#c)"/></g></svg>

<svg width="166" height="62" viewBox="0 0 166 62" fill="none" xmlns="http://www.w3.org/2000/svg">
<path d="M3.33399 20.8109H7.25333V38.5987H18.2878V41.915H3.33399V20.8109ZM34.8018 33.9558C34.8018 34.217 34.7817 34.5889 34.7415 35.0713H22.1092C22.3303 36.2571 22.9031 37.2018 23.8276 37.9052C24.7723 38.5886 25.9381 38.9303 27.3249 38.9303C29.0936 38.9303 30.5508 38.3474 31.6965 37.1817L33.7165 39.5031C32.9929 40.3674 32.0784 41.0206 30.9729 41.4628C29.8675 41.905 28.6213 42.1261 27.2345 42.1261C25.4657 42.1261 23.908 41.7743 22.5614 41.0709C21.2147 40.3674 20.1696 39.3926 19.4259 38.1464C18.7023 36.8802 18.3406 35.4531 18.3406 33.8653C18.3406 32.2976 18.6923 30.8906 19.3958 29.6445C20.1193 28.3782 21.1143 27.3934 22.3805 26.6899C23.6468 25.9864 25.0738 25.6347 26.6616 25.6347C28.2294 25.6347 29.6263 25.9864 30.8523 26.6899C32.0985 27.3733 33.0632 28.3481 33.7466 29.6143C34.4501 30.8605 34.8018 32.3076 34.8018 33.9558ZM26.6616 28.6496C25.4557 28.6496 24.4306 29.0113 23.5865 29.7349C22.7624 30.4384 22.2599 31.3831 22.079 32.5689H31.2141C31.0533 31.4032 30.5609 30.4585 29.7368 29.7349C28.9127 29.0113 27.8877 28.6496 26.6616 28.6496ZM42.9246 25.6347C45.2963 25.6347 47.1052 26.2075 48.3513 27.3532C49.6176 28.4787 50.2507 30.1872 50.2507 32.4785V41.915H46.6932V39.9554C46.2309 40.6588 45.5676 41.2015 44.7033 41.5834C43.8592 41.9452 42.8341 42.1261 41.6282 42.1261C40.4222 42.1261 39.367 41.9251 38.4625 41.5231C37.5581 41.101 36.8546 40.5282 36.3521 39.8046C35.8697 39.061 35.6285 38.2268 35.6285 37.3023C35.6285 35.8551 36.1612 34.6994 37.2264 33.8352C38.3118 32.9508 40.0102 32.5086 42.3216 32.5086H46.4821V32.2674C46.4821 31.1419 46.1404 30.2776 45.4571 29.6746C44.7938 29.0716 43.7989 28.7702 42.4723 28.7702C41.5679 28.7702 40.6735 28.9109 39.7891 29.1922C38.9248 29.4736 38.1912 29.8656 37.5882 30.368L36.1109 27.6245C36.9551 26.9813 37.9701 26.4889 39.156 26.1472C40.3418 25.8055 41.598 25.6347 42.9246 25.6347ZM42.412 39.3825C43.3567 39.3825 44.1908 39.1715 44.9144 38.7494C45.6581 38.3072 46.1806 37.6842 46.4821 36.8802V35.011H42.5929C40.4222 35.011 39.3369 35.7245 39.3369 37.1515C39.3369 37.8349 39.6082 38.3776 40.1509 38.7796C40.6936 39.1815 41.4473 39.3825 42.412 39.3825ZM69.7963 19.5446V41.915H66.1785V39.8348C65.5554 40.5985 64.7816 41.1714 63.857 41.5533C62.9526 41.9351 61.9476 42.1261 60.8421 42.1261C59.2945 42.1261 57.8976 41.7844 56.6515 41.101C55.4254 40.4176 54.4606 39.4529 53.7572 38.2067C53.0537 36.9405 52.702 35.4933 52.702 33.8653C52.702 32.2373 53.0537 30.8002 53.7572 29.554C54.4606 28.3079 55.4254 27.3431 56.6515 26.6597C57.8976 25.9764 59.2945 25.6347 60.8421 25.6347C61.9074 25.6347 62.8822 25.8156 63.7666 26.1774C64.6509 26.5391 65.4047 27.0818 66.0277 27.8054V19.5446H69.7963ZM61.2944 38.9002C62.1988 38.9002 63.0129 38.6992 63.7364 38.2972C64.46 37.8751 65.0328 37.2822 65.4549 36.5184C65.877 35.7546 66.088 34.8703 66.088 33.8653C66.088 32.8603 65.877 31.976 65.4549 31.2122C65.0328 30.4484 64.46 29.8656 63.7364 29.4636C63.0129 29.0415 62.1988 28.8305 61.2944 28.8305C60.3899 28.8305 59.5759 29.0415 58.8523 29.4636C58.1288 29.8656 57.5559 30.4484 57.1338 31.2122C56.7118 31.976 56.5007 32.8603 56.5007 33.8653C56.5007 34.8703 56.7118 35.7546 57.1338 36.5184C57.5559 37.2822 58.1288 37.8751 58.8523 38.2972C59.5759 38.6992 60.3899 38.9002 61.2944 38.9002ZM82.957 42.2165C80.0426 42.2165 77.7714 41.4025 76.1434 39.7745C74.5153 38.1263 73.7013 35.7747 73.7013 32.7197V20.8109H77.6207V32.5689C77.6207 36.7093 79.4095 38.7796 82.9872 38.7796C86.5447 38.7796 88.3235 36.7093 88.3235 32.5689V20.8109H92.1825V32.7197C92.1825 35.7747 91.3685 38.1263 89.7405 39.7745C88.1326 41.4025 85.8714 42.2165 82.957 42.2165ZM109.467 41.915L103.738 33.8955L98.0705 41.915H93.6085L101.447 31.1519L94.0306 20.8109H98.4624L103.859 28.3179L109.195 20.8109H113.446L106.06 31.0012L113.989 41.915H109.467Z" fill="white"/>
<path d="M145.222 29.7472L121.972 16.3494" stroke="url(#paint0_linear)" stroke-width="4.52813" stroke-linecap="round"/>
<path d="M122.068 43.3789L145.339 29.9434" stroke="url(#paint1_linear)" stroke-width="4.52813" stroke-linecap="round"/>
<path d="M122.068 43.3787L122.078 31.4089" stroke="url(#paint2_linear)" stroke-width="4.52813" stroke-linecap="round"/>
<defs>
<linearGradient id="paint0_linear" x1="121.915" y1="16.2507" x2="145.221" y2="30.2121" gradientUnits="userSpaceOnUse">
<stop/>
<stop offset="1" stop-color="#1C69FF"/>
</linearGradient>
<linearGradient id="paint1_linear" x1="115.707" y1="33.5173" x2="131.454" y2="8.9142" gradientUnits="userSpaceOnUse">
<stop stop-color="#D400F7"/>
<stop offset="0.997707" stop-color="#115DD0"/>
</linearGradient>
<linearGradient id="paint2_linear" x1="120.125" y1="28.9763" x2="124.827" y2="44.9418" gradientUnits="userSpaceOnUse">
<stop/>
<stop offset="1" stop-color="#E22FFF"/>
</linearGradient>
</defs>
</svg>
